X:124190
T:Jenny's Bawbee
C:Traditional
B: Scots Guards
H:
O:Arranged by Kevin Fraser
O:Transcribed by Kevin Fraser
Z:Kevin Fraser
Q:1/4=132
K:HP
M:2/4
L:1/16
R:March
U: R = ///
U: r = //
U: V = !accent!
V:M gstem=up stem=down name="Melody" sname="Melody" 
V:H gstem=up stem=down name="Harmony" sname="Harmony"
V:C gstem=up stem=down name="C-Harmony" sname="C-Harmony"
V:S gstem=up stem=down dyn=up stafflines=1 clef=perc middle=G name="Snare" sname="Snare"" sname="Snare"
V:B gstem=up stem=down clef=none dyn=up name="Bass" sname="Bass"
V:T gstem=up stem=down clef=none dyn=up name="Tenor" sname="Tenor"
V:BB gstem=up stem=down name="Brass Bass" sname="ABCD-C" transpose=-1  octave=-1 clef=bass
V:BC gstem=up stem=down name="Brass Chord" sname="ABCD-D" transpose=-1
V:BD gstem=up stem=down name="Brass Chord 2" sname="ABCD-B" transpose=-1
V:P gstem=up stem=down name="Piano" octave=-1
I:MIDI=program 110
%%MIDI gracedivider 4
%%MIDI gchord
%%MIDI beatstring 
% %alignbars 80
I:linebreak $
%%score {M}
%%MIDI program 109 #bagpipes
%%MIDI vol 100
V:M
|: {gf}g2 | {ag}a4 {GdG}a3g           | {a}f2d2 {gdc}d2{g}e>f      | {gf}g2{a}B2 {gef}e3d            | {gcd}c2{e}A2 {GAG}A2{gf}g2 |
          | {ag}a4 {GdG}a3g           | {a}f2d2 {g}f2{ag}a2        | {BG}B4    {gcd}c2{e}A2          | {Gdc}d4 {gdc}d2           :|
||     e  | {g}f2d2 {gf}g2e2          | {gfg}f2d2 {gdc}d2{g}e>f    | {gf}g2{a}B2 {gef}e3d            | {gcd}c2{e}A2 {GAG}A3e      |
          | {g}f2d2 {gf}g2e2          | {a}f2d2 {g}f2{ag}a2        | {BG}B4    {gcd}c2{e}A2          | {Gdc}d4 {gdc}d3e           |
          | {g}f2d2 {gf}g2e2          | {gfg}f2d2 {gdc}d2{g}e>f    | {gf}g2{a}B2 {gef}e3d            | {gcd}c2{e}A2 {GAG}A2{gf}g2 |
          | {ag}a4 {GdG}a3g           | {a}f2d2 {g}f2{ag}a2        | {BG}B4    {gcd}c2{e}A2          | {Gdc}d4 {gdc}d2            ||
W:ASPD plays this with My Love She's But a Lass Yet

